static/images/mobile/copyright/wikipedia-wordmark-he.svg

<?xml version="1.0" encoding="UTF-8"?>
<svg xmlns="http://www.w3.org/2000/svg" width="108" height="25" viewBox="0 0 108 25">
	<title>
		he-wordmark-108-25--1
	</title>
	<g id="Page-1" fill="none" fill-rule="evenodd" stroke="none" stroke-width="1">
		<path id="he-wordmark-108-25--1" fill="#000" fill-rule="nonzero" d="M74.058838,6.17981 L75.097046,21.76941 C74.6466067,22.95593 73.981934,24.0051233 73.103028,24.91699 L71.768189,10.00305 C72.251587,8.59680333 73.0151367,7.32239 74.058838,6.17981 Z M102.255246,0.03296 L106.441036,3.01575 C107.089229,3.46619 107.506713,4.09790333 107.693486,4.91089 C107.803346,5.36133 107.847289,6.11389333 107.825316,7.16858 L107.693486,16.54541 C107.023319,17.6110833 106.248783,18.5339333 105.369876,19.31396 L105.122676,8.17383 C105.100743,6.84448333 104.595373,5.85571333 103.606566,5.20752 L100.195316,2.94983 L102.255246,0.03296 Z M3.345337,0.21423 C3.42224167,0.774536667 3.47168033,1.08215333 3.493653,1.13708 C3.60351633,1.51062 3.80127,1.69739 4.086914,1.69739 L10.810547,1.69739 C12.480469,1.69739 13.7274173,1.90613 14.551392,2.32361 C15.69397,2.91687 16.265259,3.98803667 16.265259,5.53711 L16.265259,7.66296 L16.100464,16.0675 C15.5181887,17.2869867 14.6722413,18.34717 13.562622,19.24805 L13.710938,8.33862 C13.7329113,5.88867333 13.0023203,4.6637 11.519165,4.6637 L-1.0658141e-13,4.6637 C0.878906667,3.00476 1.994019,1.52160333 3.345337,0.21423 Z M4.56482,6.45996 C4.52087333,7.42676 4.4989,8.34961 4.4989,9.22851 L4.4165,15.80383 C3.801266,17.0782433 2.94982567,18.1933567 1.862179,19.14917 L1.86296027,18.9901196 C1.86829898,18.2135815 1.90099856,15.047605 1.961059,9.49219 C2.68615633,8.54736333 3.55407633,7.53662 4.56482,6.45996 Z M32.217407,0 C32.2723403,0.615233333 32.3437517,1.02172667 32.431641,1.21948 C32.563477,1.53808667 32.8051763,1.69739 33.156739,1.69739 L38.562012,1.69739 C39.1113287,1.03821 39.7155767,0.4834 40.374756,0.03296 L40.374756,1.69739 L43.423462,1.69739 L42.072144,4.6637 L40.24292,4.6637 L40.24292,16.51245 C39.627686,17.2485367 38.787232,18.0670167 37.721558,18.96789 L37.721558,4.6637 L28.641358,4.6637 C29.8168947,2.91687333 31.008911,1.36230667 32.217407,0 Z M73.580933,0.11536 L73.712769,1.13708 C73.778689,1.51062 73.9709497,1.69739 74.289551,1.69739 L85.050659,1.69739 C85.8746337,1.69739 86.5173327,2.04895 86.978756,2.75207 C87.3632827,3.34533667 87.555546,4.04846333 87.555546,4.86145 C87.555546,8.46496333 86.429446,11.6070533 84.177246,14.28772 C82.55127,16.2213133 80.0463873,17.63855 76.662598,18.53943 C77.0361333,17.7374233 77.5415043,16.5783633 78.178711,15.06225 C79.7387697,14.7875967 81.2109377,14.1448967 82.595215,13.13415 C84.0783697,12.05749 84.819947,10.2117867 84.819947,7.59704 C84.819947,5.64148 84.259644,4.6637 83.139038,4.6637 L70.136719,4.6637 C70.9936523,2.87292667 72.1417237,1.35681333 73.580933,0.11536 Z M49.718628,0.21423 C51.3336187,0.675656667 52.8991703,1.38427667 54.415283,2.34009 C55.887451,3.26293667 56.9421387,4.1748 57.579346,5.07568 C57.8320313,6.52588 57.958374,8.02002 57.958374,9.5581 C57.958374,10.8105467 57.854004,12.5079367 57.645264,14.65027 C57.4584967,15.1556367 56.8542487,16.2707467 55.83252,17.9956 L44.115601,17.9956 C44.7747803,17.0068333 45.362549,16.0180667 45.878907,15.0293 L55.48645,15.0293 C55.673218,13.9855933 55.766602,12.95837 55.766602,11.94763 C55.766602,10.17883 55.5194097,8.40453667 55.025025,6.62475 C53.6627203,5.36132333 51.6357427,4.26818667 48.944092,3.34534 C48.1530767,4.02648667 47.757569,4.88342 47.757569,5.91614 C47.757569,6.57532 48.026734,7.1521 48.565064,7.64648 C48.8177493,7.87719333 49.3286137,8.21227667 50.097657,8.65173 L48.466187,11.10718 C47.3016363,10.3930667 46.5820317,9.90966667 46.307373,9.65698 C45.571289,8.9978 45.203247,8.26721 45.203247,7.46521 C45.203247,6.20178333 45.769043,4.75708 46.900635,3.1311 C47.8784183,1.73584 48.8177493,0.76355 49.718628,0.21423 Z M91.840206,0 L93.933106,1.41724 C96.5478527,3.18603333 97.855226,4.8175 97.855226,6.31164 C97.855226,7.23449333 97.4267593,8.36608667 96.569826,9.70642 C96.2731927,10.15686 95.4602027,11.2554933 94.130856,13.00232 L92.120366,13.61206 C94.0539593,10.7116667 95.020756,8.66271667 95.020756,7.46521 C95.020756,6.43249667 93.9166293,5.31738333 91.708376,4.11987 L89.582516,2.98279 C89.6704093,2.87292333 90.4229727,1.87866 91.840206,0 Z M61.913452,0 L64.006348,1.41724 C66.621094,3.18603333 67.928467,4.8175 67.928467,6.31164 C67.928467,7.23449333 67.5000003,8.36608667 66.643067,9.70642 C66.3464357,10.15686 65.5334473,11.2554933 64.204102,13.00232 L62.193604,13.61206 C64.1271973,10.7116667 65.093994,8.66271667 65.093994,7.46521 C65.093994,6.43249667 63.989868,5.31738333 61.781616,4.11987 L59.655762,2.98279 C59.7436527,2.87292333 60.496216,1.87866 61.913452,0 Z M20.846558,0 L22.939453,1.41724 C25.5541997,3.18603333 26.861573,4.8175 26.861573,6.31164 C26.861573,7.23449333 26.433106,8.36608667 25.576172,9.70642 C25.2795413,10.15686 24.466553,11.2554933 23.137207,13.00232 L21.126709,13.61206 C23.060303,10.7116667 24.0271,8.66271667 24.0271,7.46521 C24.0271,6.43249667 22.922974,5.31738333 20.714722,4.11987 L18.588867,2.98279 C18.6767577,2.87292333 19.4293213,1.87866 20.846558,0 Z"/>
	</g>
</svg>

<svg xmlns="http://www.w3.org/2000/svg" width="108" height="25"><path fill="#000" fill-rule="nonzero" d="m74.059 6.18 1.038 15.59a9.189 9.189 0 0 1-1.994 3.147l-1.335-14.914a10.86 10.86 0 0 1 2.29-3.823zM102.255.033l4.186 2.983c.648.45 1.066 1.082 1.252 1.895.11.45.154 1.203.132 2.258l-.132 9.376a12.737 12.737 0 0 1-2.323 2.769l-.247-11.14c-.022-1.33-.528-2.318-1.516-2.966l-3.412-2.258 2.06-2.917zM3.345.214c.077.56.127.868.149.923.11.374.307.56.593.56h6.724c1.67 0 2.916.21 3.74.627 1.143.593 1.714 1.664 1.714 3.213v2.126l-.165 8.404c-.582 1.22-1.428 2.28-2.537 3.181l.148-10.91c.022-2.45-.709-3.674-2.192-3.674H0A17.652 17.652 0 0 1 3.345.214zm1.22 6.246a61.07 61.07 0 0 0-.066 2.769l-.082 6.575a10.488 10.488 0 0 1-2.555 3.345l.001-.159c.005-.776.038-3.942.098-9.498A40.607 40.607 0 0 1 4.565 6.46zM32.217 0c.055.615.127 1.022.215 1.22.131.318.373.477.725.477h5.405A8.892 8.892 0 0 1 40.375.033v1.664h3.048l-1.35 2.967h-1.83v11.848c-.615.737-1.456 1.555-2.521 2.456V4.664h-9.08C29.816 2.917 31.008 1.362 32.216 0zm41.364.115.132 1.022c.066.374.258.56.577.56h10.76c.825 0 1.467.352 1.929 1.055.384.593.577 1.296.577 2.11 0 3.603-1.127 6.745-3.379 9.426-1.626 1.933-4.13 3.35-7.514 4.251.373-.802.879-1.96 1.516-3.477 1.56-.274 3.032-.917 4.416-1.928 1.483-1.077 2.225-2.922 2.225-5.537 0-1.956-.56-2.933-1.681-2.933H70.137c.857-1.791 2.005-3.307 3.444-4.549zm-23.862.1c1.615.46 3.18 1.17 4.696 2.125 1.472.923 2.527 1.835 3.164 2.736a26.07 26.07 0 0 1 .38 4.482c0 1.253-.105 2.95-.314 5.092-.187.506-.79 1.62-1.812 3.346H44.116a32.347 32.347 0 0 0 1.763-2.967h9.607c.187-1.043.28-2.07.28-3.081 0-1.77-.247-3.543-.741-5.323-1.362-1.264-3.39-2.357-6.08-3.28-.792.681-1.187 1.538-1.187 2.571 0 .66.269 1.236.807 1.73.253.231.764.566 1.533 1.006l-1.632 2.455c-1.164-.714-1.884-1.197-2.159-1.45-.736-.66-1.104-1.39-1.104-2.192 0-1.263.566-2.708 1.698-4.334.977-1.395 1.917-2.367 2.818-2.917zM91.84 0l2.093 1.417c2.615 1.769 3.922 3.4 3.922 4.895 0 .922-.428 2.054-1.285 3.394-.297.45-1.11 1.55-2.44 3.296l-2.01.61c1.934-2.9 2.9-4.95 2.9-6.147 0-1.033-1.103-2.148-3.312-3.345l-2.125-1.137c.087-.11.84-1.104 2.257-2.983zM61.913 0l2.093 1.417c2.615 1.769 3.922 3.4 3.922 4.895 0 .922-.428 2.054-1.285 3.394-.297.45-1.11 1.55-2.439 3.296l-2.01.61c1.933-2.9 2.9-4.95 2.9-6.147 0-1.033-1.104-2.148-3.312-3.345l-2.126-1.137c.088-.11.84-1.104 2.257-2.983zM20.847 0l2.092 1.417c2.615 1.769 3.923 3.4 3.923 4.895 0 .922-.429 2.054-1.286 3.394-.296.45-1.11 1.55-2.439 3.296l-2.01.61c1.933-2.9 2.9-4.95 2.9-6.147 0-1.033-1.104-2.148-3.312-3.345l-2.126-1.137c.088-.11.84-1.104 2.258-2.983z"/></svg>
